svgs/thin/print.svg

<svg xmlns="http://www.w3.org/2000/svg" viewBox="0 0 512 512"><!-- Font Awesome Pro 6.0.0-alpha2 by @fontawesome - https://fontawesome.com License - https://fontawesome.com/license (Commercial License) --><path d="M88 160C92.406 160 96 156.422 96 152V40C96 26.766 106.781 16 120 16H346.75C353.062 16 359.25 18.562 363.719 23.031L408.969 68.281C413.438 72.75 416 78.938 416 85.25V152C416 156.422 419.594 160 424 160S432 156.422 432 152V85.25C432 74.562 427.844 64.531 420.281 56.969L375.031 11.719C367.594 4.266 357.281 0 346.75 0H120C97.938 0 80 17.938 80 40V152C80 156.422 83.594 160 88 160ZM448 192H64C28.652 192 0 220.652 0 256V352C0 369.672 14.328 384 32 384H80V488C80 501.234 90.781 512 104 512H408C421.219 512 432 501.234 432 488V384H480C497.672 384 512 369.672 512 352V256C512 220.652 483.348 192 448 192ZM416 488C416 492.406 412.406 496 408 496H104C99.594 496 96 492.406 96 488V344C96 339.594 99.594 336 104 336H408C412.406 336 416 339.594 416 344V488ZM496 352C496 360.822 488.824 368 480 368H432V344C432 330.766 421.219 320 408 320H104C90.781 320 80 330.766 80 344V368H32C23.176 368 16 360.822 16 352V256C16 229.533 37.531 208 64 208H448C474.469 208 496 229.533 496 256V352ZM432 256C423.176 256 416 263.178 416 272S423.176 288 432 288S448 280.822 448 272S440.824 256 432 256Z"/></svg>

<svg xmlns="http://www.w3.org/2000/svg" viewBox="0 0 512 512"><!--! Font Awesome Pro 6.3.0 by @fontawesome - https://fontawesome.com License - https://fontawesome.com/license (Commercial License) Copyright 2023 Fonticons, Inc. --><path d="M88 160C92.41 160 96 156.4 96 152v-112C96 26.77 106.8 16 120 16h226.8c6.312 0 12.5 2.562 16.97 7.031l45.25 45.25C413.4 72.75 416 78.94 416 85.25V152C416 156.4 419.6 160 424 160s8-3.578 8-8V85.25c0-10.69-4.156-20.72-11.72-28.28l-45.25-45.25C367.6 4.266 357.3 0 346.8 0H120C97.94 0 80 17.94 80 40v112C80 156.4 83.59 160 88 160zM448 192H64C28.65 192 0 220.7 0 256v96c0 17.67 14.33 32 32 32h48v104C80 501.2 90.78 512 104 512h304c13.22 0 24-10.77 24-24V384H480c17.67 0 32-14.33 32-32V256C512 220.7 483.3 192 448 192zM416 488c0 4.406-3.594 8-8 8h-304C99.59 496 96 492.4 96 488v-144c0-4.406 3.594-8 8-8h304c4.406 0 8 3.594 8 8V488zM496 352c0 8.822-7.176 16-16 16h-48v-24c0-13.23-10.78-24-24-24h-304c-13.22 0-24 10.77-24 24v24H32c-8.824 0-16-7.178-16-16V256c0-26.47 21.53-48 48-48h384c26.47 0 48 21.53 48 48V352zM432 256C423.2 256 416 263.2 416 272S423.2 288 432 288S448 280.8 448 272S440.8 256 432 256z"/></svg>
